Gurmukhi/0A2C.svg

<svg enable-background="new 0 0 336 592" viewBox="0 0 336 592" xmlns="http://www.w3.org/2000/svg"><path d="m245.640808 217.316193c-3.305115 1.46434-2.228882 4.126983-2.230926 6.273101-.051407 53.994721-.033631 107.989472-.029618 161.984253.000107 1.499787.010453 3.000397-.032242 4.499237-.101776 3.572541-2.085998 5.080048-5.241592 3.638764-6.358795-2.904297-12.533157-6.213806-18.77034-9.382263-2.342361-1.189881-2.373886-3.405213-2.371918-5.617676.005432-6.128082.001892-12.256165.001892-18.904053-6.846283 1.342133-12.715744 3.62793-18.921279 4.577484-23.243988 3.556671-44.272217-2.168365-63.60611-14.926574-14.92099-9.846161-26.279488-22.904602-34.301918-38.913514-1.655228-3.303039-1.266174-5.66333 1.066559-8.541229 11.725937-14.466247 26.680107-23.899994 44.363167-29.268463.93193-.282928 1.84288-.634979 3.426132-1.185028-6.389984-3.359985-12.636261-5.614899-18.136856-9.278809-14.663971-9.767654-23.947785-23.43843-28.582276-40.234634-1.075355-3.897308-2.799736-5.33374-6.545257-4.881088-.32827.039673-.665917.002212-.999214-.000183-15.575524-.111649-17.274041-1.494812-20.68496-16.613297-.698265-3.094955.310242-4.889114 3.549118-5.153412 1.989594-.162353 3.989807-.27359 5.98526-.273804 60.827454-.006362 121.655121.076478 182.481995-.107696 5.693573-.017242 9.144409 1.354645 10.445129 7.183044.645813 2.893708 2.192566 5.574143 3.119446 8.420212 1.404877 4.313904-.003021 6.407501-4.563934 6.481629-9.662903.157013-19.329071.113372-29.420258.223999m-45.970505 70.054199c-8.138641.426056-16.296997.646667-24.360504 1.961426-18.470611 3.011596-35.149887 9.753051-48.849762 23.013427-2.81076 2.720612-2.709877 4.458741-.359672 7.387543 22.084526 27.521393 64.792183 26.957611 88.054176 12.928711 1.887695-1.138397 2.790421-2.717743 2.787262-4.928497-.01738-12.153137-.035751-24.306549.033142-36.459381.017639-3.110535-1.511627-4.023499-4.355514-3.936829-3.991929.121704-7.990342.030365-12.949128.0336m5.797898-70.21019c-25.708191 0-51.416382 0-77.218018 0 0 1.377502-.032715 1.869415.007996 2.355179.055511.662308.08995 1.341217.26567 1.97644 6.000947 21.69368 19.327439 35.997498 41.636475 41.224304 13.636078 3.194825 27.506851 1.408509 41.265244 2.022767 4.542572.202819 5.686859-1.555115 5.592865-5.795105-.232438-10.48317.001602-20.975739-.069443-31.46373-.077149-11.388031 1.460892-10.264725-11.480789-10.319855z"/></svg>

<svg version="1.1" id="Layer_1" xmlns="http://www.w3.org/2000/svg" xmlns:xlink="http://www.w3.org/1999/xlink" x="0px" y="0px"
	 width="100%" viewBox="0 0 336 592" enable-background="new 0 0 336 592" xml:space="preserve">
<path fill="#000000" opacity="1.000000" stroke="none" 
	d="
M245.640808,217.316193 
	C242.335693,218.780533 243.411926,221.443176 243.409882,223.589294 
	C243.358475,277.584015 243.376251,331.578766 243.380264,385.573547 
	C243.380371,387.073334 243.390717,388.573944 243.348022,390.072784 
	C243.246246,393.645325 241.262024,395.152832 238.106430,393.711548 
	C231.747635,390.807251 225.573273,387.497742 219.336090,384.329285 
	C216.993729,383.139404 216.962204,380.924072 216.964172,378.711609 
	C216.969604,372.583527 216.966064,366.455444 216.966064,359.807556 
	C210.119781,361.149689 204.250320,363.435486 198.044785,364.385040 
	C174.800797,367.941711 153.772568,362.216675 134.438675,349.458466 
	C119.517685,339.612305 108.159187,326.553864 100.136757,310.544952 
	C98.481529,307.241913 98.870583,304.881622 101.203316,302.003723 
	C112.929253,287.537476 127.883423,278.103729 145.566483,272.735260 
	C146.498413,272.452332 147.409363,272.100281 148.992615,271.550232 
	C142.602631,268.190247 136.356354,265.935333 130.855759,262.271423 
	C116.191788,252.503769 106.907974,238.832993 102.273483,222.036789 
	C101.198128,218.139481 99.473747,216.703049 95.728226,217.155701 
	C95.399956,217.195374 95.062309,217.157913 94.729012,217.155518 
	C79.153488,217.043869 77.454971,215.660706 74.044052,200.542221 
	C73.345787,197.447266 74.354294,195.653107 77.593170,195.388809 
	C79.582764,195.226456 81.582977,195.115219 83.578430,195.115005 
	C144.405884,195.108643 205.233551,195.191483 266.060425,195.007309 
	C271.753998,194.990067 275.204834,196.361954 276.505554,202.190353 
	C277.151367,205.084061 278.698120,207.764496 279.625000,210.610565 
	C281.029877,214.924469 279.621979,217.018066 275.061066,217.092194 
	C265.398163,217.249207 255.731995,217.205566 245.640808,217.316193 
M199.670303,287.370392 
	C191.531662,287.796448 183.373306,288.017059 175.309799,289.331818 
	C156.839188,292.343414 140.159912,299.084869 126.460037,312.345245 
	C123.649277,315.065857 123.750160,316.803986 126.100365,319.732788 
	C148.184891,347.254181 190.892548,346.690399 214.154541,332.661499 
	C216.042236,331.523102 216.944962,329.943756 216.941803,327.733002 
	C216.924423,315.579865 216.906052,303.426453 216.974945,291.273621 
	C216.992584,288.163086 215.463318,287.250122 212.619431,287.336792 
	C208.627502,287.458496 204.629089,287.367157 199.670303,287.370392 
M205.468201,217.160202 
	C179.760010,217.160202 154.051819,217.160202 128.250183,217.160202 
	C128.250183,218.537704 128.217468,219.029617 128.258179,219.515381 
	C128.313690,220.177689 128.348129,220.856598 128.523849,221.491821 
	C134.524796,243.185501 147.851288,257.489319 170.160324,262.716125 
	C183.796402,265.910950 197.667175,264.124634 211.425568,264.738892 
	C215.968140,264.941711 217.112427,263.183777 217.018433,258.943787 
	C216.785995,248.460617 217.020035,237.968048 216.948990,227.480057 
	C216.871841,216.092026 218.409882,217.215332 205.468201,217.160202 
z"/>
</svg>
